lib/assets/icons/svg/outlined-navigation-directionbottom.svg

<svg xmlns="http://www.w3.org/2000/svg" viewBox="0 0 24 24"><path d="M11.505 4.325a.5.5 0 0 1 .5-.5.5.5 0 0 1 .48.5v14.12l6.68-6.68a.5.5 0 0 1 .7.71l-7.416 7.416a.494.494 0 0 1-.444.284v-.04a.507.507 0 0 1-.36-.15l-7.51-7.51a.5.5 0 0 1 .7-.71l6.67 6.705z"/></svg>

<svg viewBox="0 0 24 24" xmlns="http://www.w3.org/2000/svg">
  <path  d="M 11.505 4.325 C 11.505 4.049 11.729 3.825 12.005 3.825 C 12.273 3.836 12.485 4.056 12.485 4.325 L 12.485 18.445 L 19.165 11.765 C 19.359 11.574 19.671 11.574 19.865 11.765 C 20.062 11.961 20.062 12.279 19.865 12.475 L 12.449 19.891 C 12.389 20.017 12.277 20.119 12.123 20.159 C 12.084 20.169 12.045 20.174 12.005 20.175 L 12.005 20.135 C 11.87 20.135 11.74 20.081 11.645 19.985 L 4.135 12.475 C 3.938 12.279 3.938 11.961 4.135 11.765 C 4.329 11.574 4.641 11.574 4.835 11.765 L 11.505 18.47 Z"/>
</svg>
